svg/alarm3.svg

<?xml version="1.0" encoding="UTF-8"?>
<svg xmlns="http://www.w3.org/2000/svg" xmlns:xlink="http://www.w3.org/1999/xlink" width="32" height="32" viewBox="0 0 32 32">
<path fill-rule="nonzero" fill="rgb(0%, 0%, 0%)" fill-opacity="1" d="M 16 3.199219 C 14.820312 3.199219 13.867188 4.15625 13.867188 5.332031 L 13.867188 5.644531 C 10.703125 6.589844 8.535156 9.5 8.535156 12.800781 L 8.535156 15.742188 C 8.535156 18.636719 7.382812 21.417969 5.332031 23.464844 C 4.765625 23.492188 4.320312 23.964844 4.320312 24.53125 C 4.320312 25.101562 4.765625 25.570312 5.332031 25.601562 L 26.667969 25.601562 C 27.253906 25.597656 27.730469 25.121094 27.734375 24.535156 C 27.734375 23.945312 27.253906 23.464844 26.667969 23.464844 C 24.617188 21.417969 23.464844 18.636719 23.464844 15.742188 L 23.464844 12.800781 C 23.46875 9.496094 21.296875 6.585938 18.132812 5.644531 L 18.132812 5.332031 C 18.132812 4.765625 17.910156 4.222656 17.507812 3.824219 C 17.109375 3.421875 16.566406 3.199219 16 3.199219 M 4.21875 8.519531 C 3.828125 8.539062 3.480469 8.769531 3.3125 9.121094 C 3.3125 9.121094 2.132812 11.378906 2.132812 13.867188 C 2.132812 16.355469 3.3125 18.609375 3.3125 18.609375 C 3.574219 19.136719 4.214844 19.351562 4.742188 19.085938 C 5.269531 18.824219 5.484375 18.183594 5.222656 17.65625 C 5.222656 17.65625 4.265625 15.644531 4.265625 13.867188 C 4.265625 12.089844 5.222656 10.078125 5.222656 10.078125 C 5.398438 9.738281 5.378906 9.332031 5.171875 9.007812 C 4.964844 8.6875 4.601562 8.5 4.21875 8.519531 M 27.75 8.519531 C 27.375 8.511719 27.019531 8.703125 26.820312 9.023438 C 26.621094 9.34375 26.605469 9.742188 26.777344 10.078125 C 26.777344 10.078125 27.734375 12.089844 27.734375 13.867188 C 27.734375 15.644531 26.777344 17.65625 26.777344 17.65625 C 26.515625 18.183594 26.726562 18.824219 27.253906 19.089844 C 27.78125 19.351562 28.425781 19.136719 28.6875 18.609375 C 28.6875 18.609375 29.867188 16.355469 29.867188 13.867188 C 29.867188 11.378906 28.6875 9.121094 28.6875 9.121094 C 28.511719 8.761719 28.148438 8.53125 27.75 8.519531 M 12.800781 27.734375 C 12.800781 29.5 14.234375 30.933594 16 30.933594 C 17.765625 30.933594 19.199219 29.5 19.199219 27.734375 Z M 12.800781 27.734375 "/>
</svg>

<svg role="img" viewBox="0 0 32 32" height="32" width="32" xmlns="http://www.w3.org/2000/svg"><path d="M16 3.2c-1.18 0-2.133.956-2.133 2.132v.313A7.47 7.47 0 0 0 8.535 12.8v2.941c0 2.895-1.152 5.676-3.203 7.723-.566.027-1.012.5-1.012 1.066 0 .57.446 1.04 1.012 1.07h21.336a1.075 1.075 0 0 0 1.066-1.066c0-.59-.48-1.07-1.066-1.07a10.916 10.916 0 0 1-3.203-7.723V12.8a7.458 7.458 0 0 0-5.332-7.156v-.313a2.12 2.12 0 0 0-.625-1.508A2.119 2.119 0 0 0 16 3.2M4.219 8.52c-.39.02-.739.25-.907.602 0 0-1.18 2.258-1.18 4.746 0 2.488 1.18 4.742 1.18 4.742.262.528.903.743 1.43.477.528-.262.742-.902.48-1.43 0 0-.956-2.011-.956-3.789 0-1.777.957-3.789.957-3.789A1.07 1.07 0 0 0 4.219 8.52m23.531 0a1.071 1.071 0 0 0-.973 1.558s.957 2.012.957 3.79c0 1.777-.957 3.788-.957 3.788a1.071 1.071 0 0 0 .477 1.434 1.071 1.071 0 0 0 1.433-.48s1.18-2.255 1.18-4.743c0-2.488-1.18-4.746-1.18-4.746a1.08 1.08 0 0 0-.937-.601M12.8 27.734a3.2 3.2 0 0 0 3.2 3.2 3.2 3.2 0 0 0 3.2-3.2Zm0 0"/></svg>
